X: 14
M: none
L: 1/8
K: Amix
|:\
vA(uaag) va2(uef) | gedB GABG | A(uaag) a2(uef) |[1 gedB A2BG :| [2 gedB A3(uB ||
=cA)ve(uA cA) ve(uA | Bc)dB [B3G3] (u[BG] | =cA)ve(uA cA)ve(A | TBA)GB A2-A(uB |
=cA)e(uA cA)e(uA | Bc)dB G2-G(uB | AB)=c(ud ef)g(ua | ge)dB A2BG |]
(uB | =cA)ve(uA cA)ve(uA cA) ve(uA |] y4 y4 y4 y4 y4 y4
as "Da Gutters o' Skeld".  In Nort Yell da auld fiddlers played
him wi da high bass, dat is:  da back string raised from G to A.
up, da sam as du'll fin in loks o' Shetland t\"unes.  Ida second
turning, da  1 doon and 3 up comes on whit day caa da "aff beat",
not at da beginning o' da bar.  Dis happens ina braw twartree
peerie exercise so dat du can practise him.


